X: 58
T: Seule a par moy
N: Derived from Bus3054-Seule_a_par_moy.krn
C: Antoine Busnoys
%%abc-version 2.0
%%abcx-abcm2ps-target-version 5.9.1 (29 Sep 2008)
%%abc-creator hum2abc beta
%%abcx-conversion-date 2019/02/16 20:26:07
%%abc-edited-by Jesse Rodin
%%abc-edited-by Chris Gage 04-22-2015
%%abcx-initial-encoding-date 2016/02/08/
%%humdrum-veritas 806797207
%%humdrum-veritas-data 3494150197
%%linebreak <none>
%%barnumbers 0
L: 1/4
M: 2/1
Q: 1/2=120
V: 1 clef=treble
V: 2 clef=treble
V: 3 clef=treble-8
K: C
[V:1] z8 | 
[V:2] G8 | 
[V:3] G4E4 | 
[V:1] z8 | 
[V:2] d6cB | 
[V:3] D4G4- | 
[V:1] z8 | 
[V:2] A4A4 | 
[V:3] G4^F4 | 
[V:1] G8 | 
[V:2] B4B4 | 
[V:3] G8- | 
[V:1] d6cB | 
[V:2] B4B4 | 
[V:3] G8 | 
[V:1] A4A4 | 
[V:2] c4c4 | 
[V:3] ^F8 | 
[V:1] B4B4 | 
[V:2] B3cd2G2- | 
[V:3] G8- | 
[V:1] B4B4 | 
[V:2] G2FED2B2- | 
[V:3] G8 | 
[V:1] c4c4 | 
[V:2] B2A2A2G2 | 
[V:3] ^F8 | 
[V:1] B3cd2G2- | 
[V:2] B8 | 
[V:3] G8- | 
[V:1] G2FED2B2- | 
[V:2] B,8 | 
[V:3] G8 | 
[V:1] B2A2A2G2 | 
[V:2] C8 | 
[V:3] ^F8 | 
[V:1] B8 | 
[V:2] z4B,4 | 
[V:3] G4z2d2 | 
[V:1] z4B4 | 
[V:2] C4D4 | 
[V:3] c2e3dcB | 
[V:1] c4d4 | 
[V:2] E2F3DG2- | 
[V:3] A4B4 | 
[V:1] e4e4 | 
[V:2] GEA3GFE | 
[V:3] c8 | 
[V:1] f4f4 | 
[V:2] D2z2d4 | 
[V:3] d8 | 
[V:1] g4g4 | 
[V:2] e4e4 | 
[V:3] z4c4 | 
[V:1] f6ed | 
[V:2] d2A2B2d2- | 
[V:3] d2d3cB2 | 
[V:1] e3dd4- | 
[V:2] d2^c2d2D2 | 
[V:3] A4B2B2- | 
[V:1] d2^cdc3B | 
[V:2] F2G2E4 | 
[V:3] BAG2A4 | 
[V:1] d8- | 
[V:2] z4D4- | 
[V:3] D4G4 | 
[V:1] d8 | 
[V:2] D2G3FG2 | 
[V:3] B8 | 
[V:1] z4A4 | 
[V:2] AG^FEF3E | 
[V:3] A8 | 
[V:1] B4B4 | 
[V:2] G8 | 
[V:3] z2G3FG2 | 
[V:1] c4c4 | 
[V:2] z4A4 | 
[V:3] AG^FE^F4 | 
[V:1] B4G4 | 
[V:2] B4B4 | 
[V:3] G2d2e2g2- | 
[V:1] A4A4 | 
[V:2] c4c4 | 
[V:3] g2^fe^fga^f | 
[V:1] G2d2e2g2- | 
[V:2] B4G4 | 
[V:3] g4e4 | 
[V:1] g2^fefgaf | 
[V:2] A4A4 | 
[V:3] d8 | 
[V:1] g4f2d2 | 
[V:2] G2E2D2G2- | 
[V:3] G4z2B2 | 
[V:1] e2d4cB | 
[V:2] G2F2G2E2 | 
[V:3] c2d2G2A2 | 
[V:1] A8 | 
[V:2] ^F4z4 | 
[V:3] D4z4 | 
[V:1] z8 | 
[V:2] B6AB | 
[V:3] d6cd | 
[V:1] z8 | 
[V:2] cBAGB2A2- | 
[V:3] edcBd2c2- | 
[V:1] z8 | 
[V:2] ADG4^F2 | 
[V:3] c2B2A4 | 
[V:1] B8 | 
[V:2] G8- | 
[V:3] z2G3AB2 | 
[V:1] B4B4 | 
[V:2] G8 | 
[V:3] E2e3dB2- | 
[V:1] c8 | 
[V:2] z8 | 
[V:3] B2AGA4 | 
[V:1] B4G4 | 
[V:2] B8 | 
[V:3] B2G3AB2 | 
[V:1] z4d4 | 
[V:2] B4B4 | 
[V:3] E2e3dB2- | 
[V:1] e4e4 | 
[V:2] c8 | 
[V:3] B2AGA4 | 
[V:1] d6B2- | 
[V:2] B4G4 | 
[V:3] B6e2- | 
[V:1] BAG2F2G2- | 
[V:2] z4d4 | 
[V:3] e4d2B2 | 
[V:1] G2E2G2A2 | 
[V:2] e4e4 | 
[V:3] c2A2c4 | 
[V:1] B4G2d2- | 
[V:2] d6B2- | 
[V:3] G8- | 
[V:1] dcB2A2G2 | 
[V:2] BAG2F2G2- | 
[V:3] G4z4 | 
[V:1] d2e4f2 | 
[V:2] G2E2G2A2 | 
[V:3] z8 | 
[V:1] g2e2d2c2- | 
[V:2] B2c2B2e2- | 
[V:3] E4B2c2- | 
[V:1] cBB4A2 | 
[V:2] e2d2c4 | 
[V:3] c2G2A4 | 
[V:1] B2c2B2e2- | 
[V:2] B2e2d2c2- | 
[V:3] E4B2c2- | 
[V:1] e2d2c4 | 
[V:2] cBB4A2 | 
[V:3] c2G2A4 | 
[V:1] B4z4 | 
[V:2] B8 | 
[V:3] E6G2- | 
[V:1] d8 | 
[V:2] z8 | 
[V:3] GAB3AG2 | 
[V:1] d4d4- | 
[V:2] z8 | 
[V:3] F2G2D2B2- | 
[V:1] d2cBA4 | 
[V:2] z8 | 
[V:3] BAG4^F2 | 
[V:1] G2B3AG2 | 
[V:2] d8 | 
[V:3] G8 | 
[V:1] F2G2D2B2- | 
[V:2] d4d4- | 
[V:3] z4G4 | 
[V:1] BAG4^F2 | 
[V:2] d2cBA4 | 
[V:3] D8 | 
[V:1] G2d3cB2 | 
[V:2] G2B3AG2 | 
[V:3] G8 | 
[V:1] A2G2F2G2- | 
[V:2] F2G2D2B2- | 
[V:3] z8 | 
[V:1] G2B2A4 | 
[V:2] BAG4^F2 | 
[V:3] G4d4 | 
[V:1] G4z2G2 | 
[V:2] G2B2c2d2- | 
[V:3] e3dc2B2 | 
[V:1] B2c2d2e2- | 
[V:2] dcA2B2G2- | 
[V:3] G2A2G2c2- | 
[V:1] e2d4^c2 | 
[V:2] G2F2E4 | 
[V:3] c2d2A4 | 
[V:1] d2f2e2dc | 
[V:2] z2D2E2F2 | 
[V:3] d2B2c2A2 | 
[V:1] B2d3cA2 | 
[V:2] G4D4 | 
[V:3] G4z2f2 | 
[V:1] B2AGF2A2- | 
[V:2] d6c2- | 
[V:3] g2fed2f2- | 
[V:1] AGG4^F2 | 
[V:2] cBG2A4 | 
[V:3] f2g2d4 | 
[V:1] G8 |]  
[V:2] G8 |]  
[V:3] G8 |]  



